X:1
T:Bonny Portmore
M:3/4
L:1/8
K:G
G-E| D2 D2(3D3.99999962500005/5.99999925000009D3.99999962500005/5.99999925000009E3.99999962500005/5.99999925000009D3.99999962500005/5.99999925000009E3.99999962500005/5.99999925000009F3.99999962500005/5.99999925000009|\
 A2- A2(3G3.99999962500005/5.99999925000009G3.99999962500005/5.99999925000009A3.99999962500005/5.99999925000009G3.99999962500005/5.99999925000009A3.99999962500005/5.99999925000009B3.99999962500005/5.99999925000009|\
 c2 B2A-G| E4 GE| D2 D2(3D3.99999962500005/5.99999925000009D3.99999962500005/5.99999925000009E3.99999962500005/5.99999925000009D3.99999962500005/5.99999925000009E3.99999962500005/5.99999925000009G3.99999962500005/5.99999925000009|\
 A2 B2A-G| E2 D2 D2| D4(3G3.99999962500005/5.99999925000009G3.99999962500005/5.99999925000009A3.99999962500005/5.99999925000009G3.99999962500005/5.99999925000009A3.99999962500005/5.99999925000009B3.99999962500005/5.99999925000009|\
 c2 c2B-A| B2 B2A-G| c2 B2A-G| E4(2G3.99999962500005/5.99999925000009G3.99999962500005/5.99999925000009A3.99999962500005/5.99999925000009 B3.99999962500005/5.99999925000009|\
 c2 c2B-A|G-B d2 BA| G3/2- E/2C-D E3/2- C/2| D4||
